img/sp/about-bottom-img.svg

<svg fill="none" height="40" viewBox="0 0 357 40" width="357" xmlns="http://www.w3.org/2000/svg" xmlns:xlink="http://www.w3.org/1999/xlink"><mask id="a" fill="#000" height="40" maskUnits="userSpaceOnUse" width="357" x="0" y="0"><path d="m0 0h357v40h-357z" fill="#fff"/><path d="m1 19.624c0-2.4.448-4.672 1.344-6.816.928-2.144 2.208-4.048 3.84-5.712s3.52-2.96 5.664-3.888c2.144-.96 4.448-1.44 6.912-1.44 2.432 0 4.72.48 6.864 1.44 2.144.928 4.048 2.224 5.712 3.888s2.96 3.568 3.888 5.712 1.392 4.416 1.392 6.816c0 2.464-.464 4.768-1.392 6.912s-2.224 4.032-3.888 5.664c-1.632 1.632-3.536 2.912-5.712 3.84-2.144.896-4.432 1.344-6.864 1.344-2.464 0-4.768-.448-6.912-1.344s-4.032-2.144-5.664-3.744c-1.632-1.632-2.912-3.52-3.84-5.664-.896-2.176-1.344-4.512-1.344-7.008zm5.28 0c0 1.792.32 3.472.96 5.04.672 1.536 1.584 2.896 2.736 4.08 1.152 1.152 2.48 2.064 3.984 2.736 1.536.64 3.184.96 4.944.96 1.728 0 3.344-.32 4.848-.96 1.504-.672 2.816-1.584 3.936-2.736 1.152-1.184 2.048-2.544 2.688-4.08.64-1.568.96-3.248.96-5.04s-.336-3.456-1.008-4.992c-.64-1.568-1.536-2.944-2.688-4.128-1.12-1.184-2.448-2.112-3.984-2.784-1.504-.672-3.12-1.008-4.848-1.008-1.792 0-3.44.336-4.944 1.008s-2.832 1.6-3.984 2.784-2.048 2.56-2.688 4.128c-.608 1.568-.912 3.232-.912 4.992z" fill="#000"/><path d="m88.0934 38.2-26.832-26.64 1.488.48.144 24.96h-5.184v-35.952h.24l26.496 26.688-1.2-.336-.096-25.248h5.088v36.048z" fill="#000"/><path d="m109.349 19.624c0-2.4.448-4.672 1.344-6.816.928-2.144 2.208-4.048 3.84-5.712s3.52-2.96 5.664-3.888c2.144-.96 4.448-1.44 6.912-1.44 2.432 0 4.72.48 6.864 1.44 2.144.928 4.048 2.224 5.712 3.888s2.96 3.568 3.888 5.712 1.392 4.416 1.392 6.816c0 2.464-.464 4.768-1.392 6.912s-2.224 4.032-3.888 5.664c-1.632 1.632-3.536 2.912-5.712 3.84-2.144.896-4.432 1.344-6.864 1.344-2.464 0-4.768-.448-6.912-1.344s-4.032-2.144-5.664-3.744c-1.632-1.632-2.912-3.52-3.84-5.664-.896-2.176-1.344-4.512-1.344-7.008zm5.28 0c0 1.792.32 3.472.96 5.04.672 1.536 1.584 2.896 2.736 4.08 1.152 1.152 2.48 2.064 3.984 2.736 1.536.64 3.184.96 4.944.96 1.728 0 3.344-.32 4.848-.96 1.504-.672 2.816-1.584 3.936-2.736 1.152-1.184 2.048-2.544 2.688-4.08.64-1.568.96-3.248.96-5.04s-.336-3.456-1.008-4.992c-.64-1.568-1.536-2.944-2.688-4.128-1.12-1.184-2.448-2.112-3.984-2.784-1.504-.672-3.12-1.008-4.848-1.008-1.792 0-3.44.336-4.944 1.008s-2.832 1.6-3.984 2.784-2.048 2.56-2.688 4.128c-.608 1.568-.912 3.232-.912 4.992z" fill="#000"/><path d="m166.058 37v-36h.048l18.528 26.256-2.208-.48 18.432-25.776h.096v36h-5.088v-24.432l.336 2.64-12.864 18.192h-.096l-13.104-18.192.864-2.4v24.192z" fill="#000"/><path d="m224.17 2.152h5.136v34.848h-5.136z" fill="#000"/><path d="m278.196 34.36c-.512.352-1.28.784-2.304 1.296-.992.48-2.176.896-3.552 1.248-1.344.352-2.832.512-4.464.48-2.72-.032-5.168-.512-7.344-1.44-2.144-.928-3.968-2.192-5.472-3.792-1.504-1.632-2.672-3.488-3.504-5.568-.8-2.112-1.2-4.352-1.2-6.72 0-2.624.416-5.024 1.248-7.2.832-2.208 2.016-4.128 3.552-5.76 1.568-1.632 3.392-2.896 5.472-3.792 2.112-.896 4.416-1.344 6.912-1.344 2.144 0 4.08.288 5.808.864s3.184 1.248 4.368 2.016l-2.016 4.8c-.928-.64-2.08-1.248-3.456-1.824-1.344-.608-2.848-.912-4.512-.912-1.632 0-3.184.336-4.656 1.008-1.44.64-2.72 1.552-3.84 2.736-1.088 1.152-1.952 2.512-2.592 4.08-.64 1.536-.96 3.216-.96 5.04 0 1.856.288 3.568.864 5.136s1.392 2.928 2.448 4.08c1.088 1.152 2.384 2.048 3.888 2.688s3.2.96 5.088.96c1.792 0 3.36-.272 4.704-.816 1.376-.544 2.496-1.168 3.36-1.872z" fill="#000"/><path d="m327.267 2.152v34.848h-5.136v-15.024h-17.664v15.024h-5.136v-34.848h5.136v14.928h17.664v-14.928z" fill="#000"/><path d="m350.506 2.152h5.136v34.848h-5.136z" fill="#000"/></mask><g stroke="#9ed0e0" stroke-width="2"><path d="m1 19.624c0-2.4.448-4.672 1.344-6.816.928-2.144 2.208-4.048 3.84-5.712s3.52-2.96 5.664-3.888c2.144-.96 4.448-1.44 6.912-1.44 2.432 0 4.72.48 6.864 1.44 2.144.928 4.048 2.224 5.712 3.888s2.96 3.568 3.888 5.712 1.392 4.416 1.392 6.816c0 2.464-.464 4.768-1.392 6.912s-2.224 4.032-3.888 5.664c-1.632 1.632-3.536 2.912-5.712 3.84-2.144.896-4.432 1.344-6.864 1.344-2.464 0-4.768-.448-6.912-1.344s-4.032-2.144-5.664-3.744c-1.632-1.632-2.912-3.52-3.84-5.664-.896-2.176-1.344-4.512-1.344-7.008zm5.28 0c0 1.792.32 3.472.96 5.04.672 1.536 1.584 2.896 2.736 4.08 1.152 1.152 2.48 2.064 3.984 2.736 1.536.64 3.184.96 4.944.96 1.728 0 3.344-.32 4.848-.96 1.504-.672 2.816-1.584 3.936-2.736 1.152-1.184 2.048-2.544 2.688-4.08.64-1.568.96-3.248.96-5.04s-.336-3.456-1.008-4.992c-.64-1.568-1.536-2.944-2.688-4.128-1.12-1.184-2.448-2.112-3.984-2.784-1.504-.672-3.12-1.008-4.848-1.008-1.792 0-3.44.336-4.944 1.008s-2.832 1.6-3.984 2.784-2.048 2.56-2.688 4.128c-.608 1.568-.912 3.232-.912 4.992z" mask="url(#a)"/><path d="m88.0934 38.2-26.832-26.64 1.488.48.144 24.96h-5.184v-35.952h.24l26.496 26.688-1.2-.336-.096-25.248h5.088v36.048z" mask="url(#a)"/><path d="m109.349 19.624c0-2.4.448-4.672 1.344-6.816.928-2.144 2.208-4.048 3.84-5.712s3.52-2.96 5.664-3.888c2.144-.96 4.448-1.44 6.912-1.44 2.432 0 4.72.48 6.864 1.44 2.144.928 4.048 2.224 5.712 3.888s2.96 3.568 3.888 5.712 1.392 4.416 1.392 6.816c0 2.464-.464 4.768-1.392 6.912s-2.224 4.032-3.888 5.664c-1.632 1.632-3.536 2.912-5.712 3.84-2.144.896-4.432 1.344-6.864 1.344-2.464 0-4.768-.448-6.912-1.344s-4.032-2.144-5.664-3.744c-1.632-1.632-2.912-3.52-3.84-5.664-.896-2.176-1.344-4.512-1.344-7.008zm5.28 0c0 1.792.32 3.472.96 5.04.672 1.536 1.584 2.896 2.736 4.08 1.152 1.152 2.48 2.064 3.984 2.736 1.536.64 3.184.96 4.944.96 1.728 0 3.344-.32 4.848-.96 1.504-.672 2.816-1.584 3.936-2.736 1.152-1.184 2.048-2.544 2.688-4.08.64-1.568.96-3.248.96-5.04s-.336-3.456-1.008-4.992c-.64-1.568-1.536-2.944-2.688-4.128-1.12-1.184-2.448-2.112-3.984-2.784-1.504-.672-3.12-1.008-4.848-1.008-1.792 0-3.44.336-4.944 1.008s-2.832 1.6-3.984 2.784-2.048 2.56-2.688 4.128c-.608 1.568-.912 3.232-.912 4.992z" mask="url(#a)"/><path d="m166.058 37v-36h.048l18.528 26.256-2.208-.48 18.432-25.776h.096v36h-5.088v-24.432l.336 2.64-12.864 18.192h-.096l-13.104-18.192.864-2.4v24.192z" mask="url(#a)"/><path d="m224.17 2.152h5.136v34.848h-5.136z" mask="url(#a)"/><path d="m278.196 34.36c-.512.352-1.28.784-2.304 1.296-.992.48-2.176.896-3.552 1.248-1.344.352-2.832.512-4.464.48-2.72-.032-5.168-.512-7.344-1.44-2.144-.928-3.968-2.192-5.472-3.792-1.504-1.632-2.672-3.488-3.504-5.568-.8-2.112-1.2-4.352-1.2-6.72 0-2.624.416-5.024 1.248-7.2.832-2.208 2.016-4.128 3.552-5.76 1.568-1.632 3.392-2.896 5.472-3.792 2.112-.896 4.416-1.344 6.912-1.344 2.144 0 4.08.288 5.808.864s3.184 1.248 4.368 2.016l-2.016 4.8c-.928-.64-2.08-1.248-3.456-1.824-1.344-.608-2.848-.912-4.512-.912-1.632 0-3.184.336-4.656 1.008-1.44.64-2.72 1.552-3.84 2.736-1.088 1.152-1.952 2.512-2.592 4.08-.64 1.536-.96 3.216-.96 5.04 0 1.856.288 3.568.864 5.136s1.392 2.928 2.448 4.08c1.088 1.152 2.384 2.048 3.888 2.688s3.2.96 5.088.96c1.792 0 3.36-.272 4.704-.816 1.376-.544 2.496-1.168 3.36-1.872z" mask="url(#a)"/><path d="m327.267 2.152v34.848h-5.136v-15.024h-17.664v15.024h-5.136v-34.848h5.136v14.928h17.664v-14.928z" mask="url(#a)"/><path d="m350.506 2.152h5.136v34.848h-5.136z" mask="url(#a)"/></g></svg>

<svg width="357" height="40" viewBox="0 0 357 40" fill="none" xmlns="http://www.w3.org/2000/svg">
<mask id="path-1-outside-1_26_1504" maskUnits="userSpaceOnUse" x="0" y="0" width="357" height="40" fill="black">
<rect fill="white" width="357" height="40"/>
<path d="M1 19.624C1 17.224 1.448 14.952 2.344 12.808C3.272 10.664 4.552 8.76 6.184 7.096C7.816 5.432 9.704 4.136 11.848 3.208C13.992 2.248 16.296 1.768 18.76 1.768C21.192 1.768 23.48 2.248 25.624 3.208C27.768 4.136 29.672 5.432 31.336 7.096C33 8.76 34.296 10.664 35.224 12.808C36.152 14.952 36.616 17.224 36.616 19.624C36.616 22.088 36.152 24.392 35.224 26.536C34.296 28.68 33 30.568 31.336 32.2C29.704 33.832 27.8 35.112 25.624 36.04C23.48 36.936 21.192 37.384 18.76 37.384C16.296 37.384 13.992 36.936 11.848 36.04C9.704 35.144 7.816 33.896 6.184 32.296C4.552 30.664 3.272 28.776 2.344 26.632C1.448 24.456 1 22.12 1 19.624ZM6.28 19.624C6.28 21.416 6.6 23.096 7.24 24.664C7.912 26.2 8.824 27.56 9.976 28.744C11.128 29.896 12.456 30.808 13.96 31.48C15.496 32.12 17.144 32.44 18.904 32.44C20.632 32.44 22.248 32.12 23.752 31.48C25.256 30.808 26.568 29.896 27.688 28.744C28.84 27.56 29.736 26.2 30.376 24.664C31.016 23.096 31.336 21.416 31.336 19.624C31.336 17.832 31 16.168 30.328 14.632C29.688 13.064 28.792 11.688 27.64 10.504C26.52 9.32 25.192 8.392 23.656 7.72C22.152 7.048 20.536 6.712 18.808 6.712C17.016 6.712 15.368 7.048 13.864 7.72C12.36 8.392 11.032 9.32 9.88 10.504C8.728 11.688 7.832 13.064 7.192 14.632C6.584 16.2 6.28 17.864 6.28 19.624Z"/>
<path d="M88.0934 38.2L61.2614 11.56L62.7494 12.04L62.8934 37H57.7094V1.048H57.9494L84.4454 27.736L83.2454 27.4L83.1494 2.152H88.2374V38.2H88.0934Z"/>
<path d="M109.349 19.624C109.349 17.224 109.797 14.952 110.693 12.808C111.621 10.664 112.901 8.76 114.533 7.096C116.165 5.432 118.053 4.136 120.197 3.208C122.341 2.248 124.645 1.768 127.109 1.768C129.541 1.768 131.829 2.248 133.973 3.208C136.117 4.136 138.021 5.432 139.685 7.096C141.349 8.76 142.645 10.664 143.573 12.808C144.501 14.952 144.965 17.224 144.965 19.624C144.965 22.088 144.501 24.392 143.573 26.536C142.645 28.68 141.349 30.568 139.685 32.2C138.053 33.832 136.149 35.112 133.973 36.04C131.829 36.936 129.541 37.384 127.109 37.384C124.645 37.384 122.341 36.936 120.197 36.04C118.053 35.144 116.165 33.896 114.533 32.296C112.901 30.664 111.621 28.776 110.693 26.632C109.797 24.456 109.349 22.12 109.349 19.624ZM114.629 19.624C114.629 21.416 114.949 23.096 115.589 24.664C116.261 26.2 117.173 27.56 118.325 28.744C119.477 29.896 120.805 30.808 122.309 31.48C123.845 32.12 125.493 32.44 127.253 32.44C128.981 32.44 130.597 32.12 132.101 31.48C133.605 30.808 134.917 29.896 136.037 28.744C137.189 27.56 138.085 26.2 138.725 24.664C139.365 23.096 139.685 21.416 139.685 19.624C139.685 17.832 139.349 16.168 138.677 14.632C138.037 13.064 137.141 11.688 135.989 10.504C134.869 9.32 133.541 8.392 132.005 7.72C130.501 7.048 128.885 6.712 127.157 6.712C125.365 6.712 123.717 7.048 122.213 7.72C120.709 8.392 119.381 9.32 118.229 10.504C117.077 11.688 116.181 13.064 115.541 14.632C114.933 16.2 114.629 17.864 114.629 19.624Z"/>
<path d="M166.058 37V1H166.106L184.634 27.256L182.426 26.776L200.858 1H200.954V37H195.866V12.568L196.202 15.208L183.338 33.4H183.242L170.138 15.208L171.002 12.808V37H166.058Z"/>
<path d="M224.17 2.152H229.306V37H224.17V2.152Z"/>
<path d="M278.196 34.36C277.684 34.712 276.916 35.144 275.892 35.656C274.9 36.136 273.716 36.552 272.34 36.904C270.996 37.256 269.508 37.416 267.876 37.384C265.156 37.352 262.708 36.872 260.532 35.944C258.388 35.016 256.564 33.752 255.06 32.152C253.556 30.52 252.388 28.664 251.556 26.584C250.756 24.472 250.356 22.232 250.356 19.864C250.356 17.24 250.772 14.84 251.604 12.664C252.436 10.456 253.62 8.536 255.156 6.904C256.724 5.272 258.548 4.008 260.628 3.112C262.74 2.216 265.044 1.768 267.54 1.768C269.684 1.768 271.62 2.056 273.348 2.632C275.076 3.208 276.532 3.88 277.716 4.648L275.7 9.448C274.772 8.808 273.62 8.2 272.244 7.624C270.9 7.016 269.396 6.712 267.732 6.712C266.1 6.712 264.548 7.048 263.076 7.72C261.636 8.36 260.356 9.272 259.236 10.456C258.148 11.608 257.284 12.968 256.644 14.536C256.004 16.072 255.684 17.752 255.684 19.576C255.684 21.432 255.972 23.144 256.548 24.712C257.124 26.28 257.94 27.64 258.996 28.792C260.084 29.944 261.38 30.84 262.884 31.48C264.388 32.12 266.084 32.44 267.972 32.44C269.764 32.44 271.332 32.168 272.676 31.624C274.052 31.08 275.172 30.456 276.036 29.752L278.196 34.36Z"/>
<path d="M327.267 2.152V37H322.131V21.976H304.467V37H299.331V2.152H304.467V17.08H322.131V2.152H327.267Z"/>
<path d="M350.506 2.152H355.642V37H350.506V2.152Z"/>
</mask>
<path d="M1 19.624C1 17.224 1.448 14.952 2.344 12.808C3.272 10.664 4.552 8.76 6.184 7.096C7.816 5.432 9.704 4.136 11.848 3.208C13.992 2.248 16.296 1.768 18.76 1.768C21.192 1.768 23.48 2.248 25.624 3.208C27.768 4.136 29.672 5.432 31.336 7.096C33 8.76 34.296 10.664 35.224 12.808C36.152 14.952 36.616 17.224 36.616 19.624C36.616 22.088 36.152 24.392 35.224 26.536C34.296 28.68 33 30.568 31.336 32.2C29.704 33.832 27.8 35.112 25.624 36.04C23.48 36.936 21.192 37.384 18.76 37.384C16.296 37.384 13.992 36.936 11.848 36.04C9.704 35.144 7.816 33.896 6.184 32.296C4.552 30.664 3.272 28.776 2.344 26.632C1.448 24.456 1 22.12 1 19.624ZM6.28 19.624C6.28 21.416 6.6 23.096 7.24 24.664C7.912 26.2 8.824 27.56 9.976 28.744C11.128 29.896 12.456 30.808 13.96 31.48C15.496 32.12 17.144 32.44 18.904 32.44C20.632 32.44 22.248 32.12 23.752 31.48C25.256 30.808 26.568 29.896 27.688 28.744C28.84 27.56 29.736 26.2 30.376 24.664C31.016 23.096 31.336 21.416 31.336 19.624C31.336 17.832 31 16.168 30.328 14.632C29.688 13.064 28.792 11.688 27.64 10.504C26.52 9.32 25.192 8.392 23.656 7.72C22.152 7.048 20.536 6.712 18.808 6.712C17.016 6.712 15.368 7.048 13.864 7.72C12.36 8.392 11.032 9.32 9.88 10.504C8.728 11.688 7.832 13.064 7.192 14.632C6.584 16.2 6.28 17.864 6.28 19.624Z" stroke="#9ED0E0" stroke-width="2" mask="url(#path-1-outside-1_26_1504)"/>
<path d="M88.0934 38.2L61.2614 11.56L62.7494 12.04L62.8934 37H57.7094V1.048H57.9494L84.4454 27.736L83.2454 27.4L83.1494 2.152H88.2374V38.2H88.0934Z" stroke="#9ED0E0" stroke-width="2" mask="url(#path-1-outside-1_26_1504)"/>
<path d="M109.349 19.624C109.349 17.224 109.797 14.952 110.693 12.808C111.621 10.664 112.901 8.76 114.533 7.096C116.165 5.432 118.053 4.136 120.197 3.208C122.341 2.248 124.645 1.768 127.109 1.768C129.541 1.768 131.829 2.248 133.973 3.208C136.117 4.136 138.021 5.432 139.685 7.096C141.349 8.76 142.645 10.664 143.573 12.808C144.501 14.952 144.965 17.224 144.965 19.624C144.965 22.088 144.501 24.392 143.573 26.536C142.645 28.68 141.349 30.568 139.685 32.2C138.053 33.832 136.149 35.112 133.973 36.04C131.829 36.936 129.541 37.384 127.109 37.384C124.645 37.384 122.341 36.936 120.197 36.04C118.053 35.144 116.165 33.896 114.533 32.296C112.901 30.664 111.621 28.776 110.693 26.632C109.797 24.456 109.349 22.12 109.349 19.624ZM114.629 19.624C114.629 21.416 114.949 23.096 115.589 24.664C116.261 26.2 117.173 27.56 118.325 28.744C119.477 29.896 120.805 30.808 122.309 31.48C123.845 32.12 125.493 32.44 127.253 32.44C128.981 32.44 130.597 32.12 132.101 31.48C133.605 30.808 134.917 29.896 136.037 28.744C137.189 27.56 138.085 26.2 138.725 24.664C139.365 23.096 139.685 21.416 139.685 19.624C139.685 17.832 139.349 16.168 138.677 14.632C138.037 13.064 137.141 11.688 135.989 10.504C134.869 9.32 133.541 8.392 132.005 7.72C130.501 7.048 128.885 6.712 127.157 6.712C125.365 6.712 123.717 7.048 122.213 7.72C120.709 8.392 119.381 9.32 118.229 10.504C117.077 11.688 116.181 13.064 115.541 14.632C114.933 16.2 114.629 17.864 114.629 19.624Z" stroke="#9ED0E0" stroke-width="2" mask="url(#path-1-outside-1_26_1504)"/>
<path d="M166.058 37V1H166.106L184.634 27.256L182.426 26.776L200.858 1H200.954V37H195.866V12.568L196.202 15.208L183.338 33.4H183.242L170.138 15.208L171.002 12.808V37H166.058Z" stroke="#9ED0E0" stroke-width="2" mask="url(#path-1-outside-1_26_1504)"/>
<path d="M224.17 2.152H229.306V37H224.17V2.152Z" stroke="#9ED0E0" stroke-width="2" mask="url(#path-1-outside-1_26_1504)"/>
<path d="M278.196 34.36C277.684 34.712 276.916 35.144 275.892 35.656C274.9 36.136 273.716 36.552 272.34 36.904C270.996 37.256 269.508 37.416 267.876 37.384C265.156 37.352 262.708 36.872 260.532 35.944C258.388 35.016 256.564 33.752 255.06 32.152C253.556 30.52 252.388 28.664 251.556 26.584C250.756 24.472 250.356 22.232 250.356 19.864C250.356 17.24 250.772 14.84 251.604 12.664C252.436 10.456 253.62 8.536 255.156 6.904C256.724 5.272 258.548 4.008 260.628 3.112C262.74 2.216 265.044 1.768 267.54 1.768C269.684 1.768 271.62 2.056 273.348 2.632C275.076 3.208 276.532 3.88 277.716 4.648L275.7 9.448C274.772 8.808 273.62 8.2 272.244 7.624C270.9 7.016 269.396 6.712 267.732 6.712C266.1 6.712 264.548 7.048 263.076 7.72C261.636 8.36 260.356 9.272 259.236 10.456C258.148 11.608 257.284 12.968 256.644 14.536C256.004 16.072 255.684 17.752 255.684 19.576C255.684 21.432 255.972 23.144 256.548 24.712C257.124 26.28 257.94 27.64 258.996 28.792C260.084 29.944 261.38 30.84 262.884 31.48C264.388 32.12 266.084 32.44 267.972 32.44C269.764 32.44 271.332 32.168 272.676 31.624C274.052 31.08 275.172 30.456 276.036 29.752L278.196 34.36Z" stroke="#9ED0E0" stroke-width="2" mask="url(#path-1-outside-1_26_1504)"/>
<path d="M327.267 2.152V37H322.131V21.976H304.467V37H299.331V2.152H304.467V17.08H322.131V2.152H327.267Z" stroke="#9ED0E0" stroke-width="2" mask="url(#path-1-outside-1_26_1504)"/>
<path d="M350.506 2.152H355.642V37H350.506V2.152Z" stroke="#9ED0E0" stroke-width="2" mask="url(#path-1-outside-1_26_1504)"/>
</svg>
